X: 1
T:Malasevska
O:Macedonia
M:2/4
L:1/8
K:Bbm
AB Bc|e2 dc|d3e|ge dc|AB Bc|e2 dc|d3e|fe dc||
|:dcB2|cBA2|B3A|e2dc|dcB2|cBA2|B3f|B2B2:|
